src/images/icons/arrow.svg

<svg width="25" height="16" viewBox="0 0 25 16" fill="none" xmlns="http://www.w3.org/2000/svg">
<path d="M17.5512 1.092C17.4649 1.18378 17.3963 1.29296 17.3496 1.41326C17.3028 1.53356 17.2787 1.6626 17.2787 1.79292C17.2787 1.92324 17.3028 2.05228 17.3496 2.17258C17.3963 2.29288 17.4649 2.40206 17.5512 2.49384L21.7897 7.03499H0.921394C0.677025 7.03499 0.442665 7.139 0.26987 7.32414C0.0970752 7.50928 0 7.76038 0 8.0222C0 8.28403 0.0970752 8.53513 0.26987 8.72026C0.442665 8.9054 0.677025 9.00941 0.921394 9.00941H21.7712L17.5512 13.521C17.3796 13.7059 17.2833 13.9561 17.2833 14.2169C17.2833 14.4777 17.3796 14.7279 17.5512 14.9129C17.7239 15.0968 17.9574 15.2 18.2008 15.2C18.4442 15.2 18.6778 15.0968 18.8504 14.9129L24.7105 8.63427C24.7893 8.55319 24.8521 8.45586 24.895 8.34814C24.9378 8.24041 24.9599 8.12451 24.9599 8.00739C24.9599 7.89028 24.9378 7.77438 24.895 7.66665C24.8521 7.55892 24.7893 7.4616 24.7105 7.38052L18.8596 1.092C18.774 0.999473 18.6721 0.92603 18.5598 0.875911C18.4475 0.825792 18.3271 0.799988 18.2054 0.799988C18.0838 0.799988 17.9634 0.825792 17.8511 0.875911C17.7388 0.92603 17.6369 0.999473 17.5512 1.092Z" fill="#222222"/>
</svg>

<?xml version="1.0" encoding="UTF-8"?>
<svg id="Layer_1" xmlns="http://www.w3.org/2000/svg" version="1.1" viewBox="0 0 25 16">
  <!-- Generator: Adobe Illustrator 30.2.1, SVG Export Plug-In . SVG Version: 2.1.1 Build 1)  -->
  <defs>
    <style>
      .st0 {
        fill: #e3e3e3;
      }
    </style>
  </defs>
  <path class="st0" d="M17.55,1.09c-.09.09-.15.2-.2.32-.05.12-.07.25-.07.38s.02.26.07.38c.05.12.12.23.2.32l4.24,4.54H.92c-.24,0-.48.1-.65.29-.17.19-.27.44-.27.7s.1.51.27.7c.17.19.41.29.65.29h20.85l-4.22,4.51c-.17.18-.27.44-.27.7s.1.51.27.7c.17.18.41.29.65.29s.48-.1.65-.29l5.86-6.28c.08-.08.14-.18.18-.29.04-.11.06-.22.06-.34s-.02-.23-.06-.34c-.04-.11-.11-.21-.18-.29l-5.85-6.29c-.09-.09-.19-.17-.3-.22-.11-.05-.23-.08-.35-.08s-.24.03-.35.08c-.11.05-.21.12-.3.22Z"/>
</svg>
